svg/icon/crpt.svg

<svg xmlns="http://www.w3.org/2000/svg" xmlns:xlink="http://www.w3.org/1999/xlink" width="32" height="32" viewBox="0 0 32 32">
  <defs>
    <linearGradient id="crpt-c" x1="50%" x2="50%" y1="0%" y2="100%">
      <stop offset="0%" stop-color="#FFF" stop-opacity=".5"/>
      <stop offset="100%" stop-opacity=".5"/>
    </linearGradient>
    <circle id="crpt-b" cx="16" cy="15" r="15"/>
    <filter id="crpt-a" width="111.7%" height="111.7%" x="-5.8%" y="-4.2%" filterUnits="objectBoundingBox">
      <feOffset dy=".5" in="SourceAlpha" result="shadowOffsetOuter1"/>
      <feGaussianBlur in="shadowOffsetOuter1" result="shadowBlurOuter1" stdDeviation=".5"/>
      <feComposite in="shadowBlurOuter1" in2="SourceAlpha" operator="out" result="shadowBlurOuter1"/>
      <feColorMatrix in="shadowBlurOuter1" values="0 0 0 0 0   0 0 0 0 0   0 0 0 0 0  0 0 0 0.199473505 0"/>
    </filter>
    <path id="crpt-e" d="M21.8334405,8.74431122 C20.3942122,7.5266573 18.6257235,6.89710851 16.7749196,6.89710851 C12.5800643,6.89710851 9.12540193,10.2139162 8.83729904,14.4543253 L8.014791,14.4543253 C8.30289389,9.71001405 12.1279743,6.0570523 16.7749196,6.0570523 C18.8315113,6.0570523 20.8051447,6.81290554 22.4090032,8.15620608 L21.8334405,8.74431122 Z M21.5453376,11.5151153 C20.4328961,9.95778046 18.660466,9.03730876 16.7749196,9.03836378 C13.526045,9.03836378 10.8938907,11.7249649 10.8938907,14.9996711 C10.8938907,18.3164788 13.526045,21.0037377 16.7749196,21.0037377 C18.660466,21.0041349 20.4328961,20.0836632 21.5453376,18.5263284 L22.1215434,19.1144335 C20.8463023,20.8353318 18.8726688,21.8431361 16.7749196,21.8431361 C13.0733119,21.8431361 10.0713826,18.7782795 10.0713826,15.0003289 C10.0713826,11.263822 13.0733119,8.19830757 16.7749196,8.19830757 C18.8768303,8.2005165 20.8560831,9.21089137 22.1215434,10.927668 L21.5453376,11.5151153 Z M22.4913183,9.37386 L23.0675241,8.7864127 C23.2726688,8.9962623 23.437299,9.20545406 23.6019293,9.41596149 L23.0263666,10.0034088 C22.8617363,9.79355919 22.6971061,9.58436743 22.4913183,9.37386 Z M16.7337621,23.9843914 C12.0868167,23.9843914 8.26173633,20.3320874 7.97363344,15.5877762 L8.79614148,15.5877762 C9.08424437,19.8281853 12.5389068,23.144993 16.7337621,23.144993 C18.5845659,23.144993 20.3530547,22.5147864 21.792283,21.2977903 L22.3678457,21.8852376 C20.8051447,23.2285381 18.7903537,23.9843914 16.7337621,23.9843914 Z M22.4913183,20.6675836 C22.6971061,20.4577341 22.8617363,20.2478845 23.0263666,20.0380349 L23.6019293,20.6254822 C23.437299,20.8353318 23.2733119,21.0451814 23.0675241,21.2556888 L22.4913183,20.6675836 Z M6.82250804,14.9996711 C6.82250804,20.5840385 11.3054662,25.1606016 16.7749196,25.1599438 C19.7363344,25.1599438 22.5324759,23.8587447 24.4244373,21.4655384 L25,22.0529857 C22.9440514,24.5724965 19.9826367,26 16.7749196,26 C10.8115756,26 6,21.0451814 6,14.9996711 C6,8.91205932 10.8533762,4 16.7749196,4 C19.9414791,4 22.9440514,5.42684568 25,7.94701432 L24.4244373,8.53511946 C22.5324759,6.18401459 19.7363344,4.84005622 16.7749196,4.84005622 C11.3048232,4.84005622 6.82250804,9.41596149 6.82250804,14.9996711 Z"/>
    <filter id="crpt-d" width="118.4%" height="115.9%" x="-9.2%" y="-5.7%" filterUnits="objectBoundingBox">
      <feOffset dy=".5" in="SourceAlpha" result="shadowOffsetOuter1"/>
      <feGaussianBlur in="shadowOffsetOuter1" result="shadowBlurOuter1" stdDeviation=".5"/>
      <feColorMatrix in="shadowBlurOuter1" values="0 0 0 0 0   0 0 0 0 0   0 0 0 0 0  0 0 0 0.204257246 0"/>
    </filter>
  </defs>
  <g fill="none" fill-rule="evenodd">
    <use fill="#000" filter="url(#crpt-a)" xlink:href="#crpt-b"/>
    <use fill="#00BDCD" xlink:href="#crpt-b"/>
    <use fill="url(#crpt-c)" style="mix-blend-mode:soft-light" xlink:href="#crpt-b"/>
    <circle cx="16" cy="15" r="14.5" stroke="#000" stroke-opacity=".097"/>
    <g fill-rule="nonzero">
      <use fill="#000" filter="url(#crpt-d)" xlink:href="#crpt-e"/>
      <use fill="#FFF" fill-rule="evenodd" xlink:href="#crpt-e"/>
    </g>
  </g>
</svg>

<svg height="32" width="32" xmlns="http://www.w3.org/2000/svg" xmlns:xlink="http://www.w3.org/1999/xlink"><defs><linearGradient id="c" x1="50%" x2="50%" y1="0%" y2="100%"><stop offset="0" stop-color="#fff" stop-opacity=".5"/><stop offset="1" stop-opacity=".5"/></linearGradient><circle id="b" cx="16" cy="15" r="15"/><filter id="a" height="111.7%" width="111.7%" x="-5.8%" y="-4.2%"><feOffset dy=".5" in="SourceAlpha" result="shadowOffsetOuter1"/><feGaussianBlur in="shadowOffsetOuter1" result="shadowBlurOuter1" stdDeviation=".5"/><feComposite in="shadowBlurOuter1" in2="SourceAlpha" operator="out" result="shadowBlurOuter1"/><feColorMatrix in="shadowBlurOuter1" values="0 0 0 0 0 0 0 0 0 0 0 0 0 0 0 0 0 0 0.199473505 0"/></filter><path id="e" d="M21.833 8.744a7.764 7.764 0 0 0-5.058-1.847c-4.195 0-7.65 3.317-7.938 7.557h-.822c.288-4.744 4.113-8.397 8.76-8.397 2.057 0 4.03.756 5.634 2.1zm-.288 2.771a5.863 5.863 0 0 0-4.77-2.477c-3.249 0-5.881 2.687-5.881 5.962 0 3.316 2.632 6.004 5.88 6.004 1.886 0 3.659-.92 4.771-2.478l.577.588c-1.276 1.721-3.25 2.73-5.347 2.73-3.702 0-6.704-3.066-6.704-6.844 0-3.736 3.002-6.802 6.704-6.802a6.655 6.655 0 0 1 5.347 2.73zm.946-2.141l.577-.588c.205.21.37.42.534.63l-.576.587a7.357 7.357 0 0 0-.535-.63zm-5.757 14.61c-4.647 0-8.472-3.652-8.76-8.396h.822c.288 4.24 3.743 7.557 7.938 7.557 1.85 0 3.62-.63 5.058-1.847l.576.587a8.688 8.688 0 0 1-5.634 2.1zm5.757-3.316c.206-.21.37-.42.535-.63l.576.587c-.165.21-.329.42-.534.63zM6.823 15c0 5.584 4.482 10.16 9.952 10.16 2.961 0 5.757-1.301 7.65-3.694l.575.587C22.944 24.573 19.983 26 16.775 26 10.812 26 6 21.045 6 15 6 8.912 10.853 4 16.775 4 19.94 4 22.945 5.427 25 7.947l-.576.588c-1.892-2.351-4.688-3.695-7.65-3.695-5.47 0-9.951 4.576-9.951 10.16z"/><filter id="d" height="115.9%" width="118.4%" x="-9.2%" y="-5.7%"><feOffset dy=".5" in="SourceAlpha" result="shadowOffsetOuter1"/><feGaussianBlur in="shadowOffsetOuter1" result="shadowBlurOuter1" stdDeviation=".5"/><feColorMatrix in="shadowBlurOuter1" values="0 0 0 0 0 0 0 0 0 0 0 0 0 0 0 0 0 0 0.204257246 0"/></filter></defs><g fill="none" fill-rule="evenodd"><use fill="#000" filter="url(#a)" xlink:href="#b"/><use fill="#00bdcd" xlink:href="#b"/><use fill="url(#c)" xlink:href="#b"/><circle cx="16" cy="15" r="14.5" stroke="#000" stroke-opacity=".097"/><g fill-rule="nonzero"><use fill="#000" filter="url(#d)" xlink:href="#e"/><use fill="#fff" fill-rule="evenodd" xlink:href="#e"/></g></g></svg>
